svg/color/carv.svg

<svg version="1.1" id="Layer_1" xmlns="http://www.w3.org/2000/svg" xmlns:xlink="http://www.w3.org/1999/xlink" x="0px" y="0px"
	 width="100%" viewBox="0 0 200 200" enable-background="new 0 0 200 200" xml:space="preserve">
<path fill="#FFFFFF" opacity="1.000000" stroke="none" 
	d="
M120.000000,201.000000 
	C80.024696,201.000000 40.549400,201.000000 1.037050,201.000000 
	C1.037050,134.399734 1.037050,67.799454 1.037050,1.099581 
	C67.558464,1.099581 134.117126,1.099581 200.837891,1.099581 
	C200.837891,67.666351 200.837891,134.333145 200.837891,201.000000 
	C174.133072,201.000000 147.316528,201.000000 120.000000,201.000000 
M125.384705,87.436867 
	C118.766663,87.436867 112.148613,87.436867 105.557709,87.436867 
	C105.557709,97.149117 105.557709,106.213043 105.557709,115.313667 
	C110.304565,115.313667 114.687546,115.313667 119.482323,115.313667 
	C119.482323,110.701309 119.482323,106.433884 119.482323,101.594795 
	C124.271950,101.594795 128.665283,101.594795 133.081940,101.594795 
	C133.081940,96.584740 133.081940,92.172783 133.081940,87.436935 
	C130.629135,87.436935 128.483826,87.436935 125.384705,87.436867 
M94.522591,111.056198 
	C95.624802,109.868935 96.727013,108.681671 97.363052,107.996559 
	C90.745651,101.242592 84.316505,94.680763 78.292679,88.532616 
	C71.946663,94.751701 65.462723,101.105957 58.801899,107.633553 
	C62.051601,110.637383 65.321693,113.660057 69.399422,117.429260 
	C72.021690,114.251755 74.937805,110.718170 78.417343,106.501884 
	C82.107193,110.544540 85.112747,113.837471 88.416092,117.456657 
	C90.395515,115.338531 92.186073,113.422516 94.522591,111.056198 
M146.422440,103.015228 
	C151.046692,107.886543 155.670929,112.757866 159.893494,117.206047 
	C167.158768,110.160492 173.682861,103.833687 180.036499,97.672188 
	C176.893509,94.325439 173.778534,91.008530 169.911819,86.891151 
	C166.704239,90.545044 163.765854,93.892288 160.142670,98.019608 
	C156.972244,94.370407 154.062943,91.021759 151.696808,88.298302 
	C148.026962,91.533585 144.643585,94.516335 140.587921,98.091751 
	C142.602234,99.751854 144.262192,101.119919 146.422440,103.015228 
M49.632191,110.169380 
	C46.713604,107.466782 43.795013,104.764183 39.923481,101.179161 
	C44.049339,97.960182 47.574585,95.209793 51.015984,92.524834 
	C47.046394,88.383186 43.889935,85.089912 41.126869,82.207092 
	C34.360207,88.791168 27.837561,95.137817 21.697548,101.112152 
	C28.210569,107.743637 34.653908,114.304169 41.538647,121.314133 
	C44.374432,117.798203 47.191128,114.305931 49.632191,110.169380 
z"/>
<path fill="#1B1B1B" opacity="1.000000" stroke="none" 
	d="
M125.861603,87.436905 
	C128.483826,87.436935 130.629135,87.436935 133.081940,87.436935 
	C133.081940,92.172783 133.081940,96.584740 133.081940,101.594795 
	C128.665283,101.594795 124.271950,101.594795 119.482323,101.594795 
	C119.482323,106.433884 119.482323,110.701309 119.482323,115.313667 
	C114.687546,115.313667 110.304565,115.313667 105.557709,115.313667 
	C105.557709,106.213043 105.557709,97.149117 105.557709,87.436867 
	C112.148613,87.436867 118.766663,87.436867 125.861603,87.436905 
z"/>
<path fill="#131313" opacity="1.000000" stroke="none" 
	d="
M94.249603,111.281349 
	C92.186073,113.422516 90.395515,115.338531 88.416092,117.456657 
	C85.112747,113.837471 82.107193,110.544540 78.417343,106.501884 
	C74.937805,110.718170 72.021690,114.251755 69.399422,117.429260 
	C65.321693,113.660057 62.051601,110.637383 58.801899,107.633553 
	C65.462723,101.105957 71.946663,94.751701 78.292679,88.532616 
	C84.316505,94.680763 90.745651,101.242592 97.363052,107.996559 
	C96.727013,108.681671 95.624802,109.868935 94.249603,111.281349 
z"/>
<path fill="#141414" opacity="1.000000" stroke="none" 
	d="
M146.172302,102.751602 
	C144.262192,101.119919 142.602234,99.751854 140.587921,98.091751 
	C144.643585,94.516335 148.026962,91.533585 151.696808,88.298302 
	C154.062943,91.021759 156.972244,94.370407 160.142670,98.019608 
	C163.765854,93.892288 166.704239,90.545044 169.911819,86.891151 
	C173.778534,91.008530 176.893509,94.325439 180.036499,97.672188 
	C173.682861,103.833687 167.158768,110.160492 159.893494,117.206047 
	C155.670929,112.757866 151.046692,107.886543 146.172302,102.751602 
z"/>
<path fill="#141414" opacity="1.000000" stroke="none" 
	d="
M49.820007,110.491524 
	C47.191128,114.305931 44.374432,117.798203 41.538647,121.314133 
	C34.653908,114.304169 28.210569,107.743637 21.697548,101.112152 
	C27.837561,95.137817 34.360207,88.791168 41.126869,82.207092 
	C43.889935,85.089912 47.046394,88.383186 51.015984,92.524834 
	C47.574585,95.209793 44.049339,97.960182 39.923481,101.179161 
	C43.795013,104.764183 46.713604,107.466782 49.820007,110.491524 
z"/>
</svg>

<svg xmlns="http://www.w3.org/2000/svg" xml:space="preserve" viewBox="0 0 200 200"><path fill="#FFF" d="M120 201H1.037V1.1h199.8V201zm5.385-113.563h-19.827v27.877h13.924v-13.72h13.6V87.438zm-30.862 23.62 2.84-3.06-19.07-19.464-19.491 19.1 10.597 9.796 9.018-10.927 10 10.955c1.979-2.118 3.77-4.034 6.106-6.4m51.9-8.042 13.47 14.191 20.143-19.534-10.124-10.78-9.77 11.128-8.445-9.722-11.11 9.794c2.015 1.66 3.675 3.028 5.835 4.923m-96.79 7.154-9.709-8.99 11.093-8.654-9.89-10.318-19.428 18.905 19.84 20.202c2.836-3.516 5.653-7.008 8.094-11.145"/><path fill="#1B1B1B" d="M125.862 87.437h7.22v14.158h-13.6v13.719h-13.924V87.437z"/><path fill="#131313" d="M94.25 111.281a531 531 0 0 0-5.834 6.176l-9.999-10.955-9.018 10.927-10.597-9.795 19.49-19.101 19.071 19.464c-.636.685-1.738 1.872-3.113 3.284"/><path fill="#141414" d="M146.172 102.752c-1.91-1.632-3.57-3-5.584-4.66l11.109-9.794 8.446 9.722 9.769-11.129 10.124 10.781-20.143 19.534zm-96.352 7.74c-2.629 3.814-5.446 7.306-8.281 10.822l-19.841-20.202 19.429-18.905 9.889 10.318-11.093 8.654c3.872 3.585 6.79 6.288 9.897 9.313"/></svg>
